X: 34512
T: Rights Of Man, The
R: hornpipe
M: 4/4
K: Dminor
FG|:"Dm"(3ABA "C"GA "Bb"FG"A"EF|"Gm"DEFG "Dm"Acde|"Bb"fedc "F"Acde|"Dm"fdcA "C"G2 FG|
"Dm"(3ABA "C"GA "Bb"FG"A"EF|"Dm"DEFG "F"Acde|"Gm"fedc "A"Afef||1 "Dm"d2 D2 D2 FG:|2 "Dm"d2 D2 D2 fg||
|:"F"afdc defg|"Dm"afdc dfed|"C"c=Bcd edef|gece "A7"afge|
"Dm"d3 e fAgA|aAgA fAeA|"Gm"dcAG "A7"Ffef||1 "Dm"d2 D2 D2 fg:|2 "Dm"d2 D2 D2||

